X: 381
T: 7.e La Bavaroize
T: la Bavaroise
B: Robert Landrin "Potpourri fran\,cois des contre-danse ancienne tel quil se danse chez la Reine ..." 1760 p.38 #1 dance 12 #7
S: http://memory.loc.gov/cgi-bin/query/D?musdibib:2:./temp/~ammem_EbRS:
Z: 2014 John Chambers <jc:trillian.mit.edu>
M: 2/2
L: 1/8
K: Gm
% - - - - - - - - - - - - - - - - - - - - - - - - -
d2 |\
d4 g4 | d3c B2A2 | G2A2 B2c2 | dcde d2d2 |\
d4 g4 | d3c B2A2 | G2A2 B2c2 | d6 :|
|: "2.F."f2 |\
f4 b4 | f3e d2f2 | e2d2 c2B2 | cBcd c2AB |\
c4 c4 | c3B c2d2 | e2d2 c4 | B6 Bc |
d4 d4 | d3c d2e2 | d2c2 B2A2 | G^FGA GABc |\
d4 d4 | d3c d2=e2 | ^f2g2 a2^f2 | g6 :|
% - - - - - - - - - - - - - - - - - - - - - - - - -

%%sep 1 1 500
%%sep 1 1 500
